client/src/assets/images/icon-mother-small.svg

<svg viewBox="0 0 30 31.098" xmlns="http://www.w3.org/2000/svg"><g fill="#0393db"><path d="m15 16.463a8.232 8.232 0 1 1 8.232-8.232 8.241 8.241 0 0 1 -8.232 8.232zm0-15a6.768 6.768 0 1 0 6.768 6.768 6.776 6.776 0 0 0 -6.768-6.768z"/><path d="m29.268 31.1h-28.536a.732.732 0 0 1 -.732-.734 15.084 15.084 0 0 1 9.641-14 .731.731 0 0 1 .99.614c.169 1.753 2.969 3.477 4.369 4.162 1.4-.687 4.2-2.414 4.37-4.159a.731.731 0 0 1 .99-.614 15.084 15.084 0 0 1 9.641 14 .732.732 0 0 1 -.733.731zm-27.785-1.466h27.034a13.63 13.63 0 0 0 -7.917-11.579c-1 2.566-4.82 4.348-5.3 4.564a.732.732 0 0 1 -.6 0c-.479-.215-4.3-2-5.3-4.564a13.63 13.63 0 0 0 -7.917 11.579z"/><path d="m8.232 31.1a.732.732 0 0 1 -.732-.732v-5.49a.732.732 0 1 1 1.463 0v5.488a.732.732 0 0 1 -.731.734z"/><path d="m21.4 31.1a.732.732 0 0 1 -.732-.732v-5.49a.732.732 0 1 1 1.463 0v5.488a.732.732 0 0 1 -.731.734z"/></g></svg>

<svg xmlns="http://www.w3.org/2000/svg" viewBox="0 0 30 31.098"><defs><style>.a{fill:#0393db;}</style></defs><title>icon-mother</title><path class="a" d="M15,16.463a8.232,8.232,0,1,1,8.232-8.232A8.241,8.241,0,0,1,15,16.463Zm0-15a6.768,6.768,0,1,0,6.768,6.768A6.776,6.776,0,0,0,15,1.463Z"/><path class="a" d="M29.268,31.1H.732A.732.732,0,0,1,0,30.366a15.084,15.084,0,0,1,9.641-14,.731.731,0,0,1,.99.614C10.8,18.733,13.6,20.457,15,21.142c1.4-.687,4.2-2.414,4.37-4.159a.731.731,0,0,1,.99-.614,15.084,15.084,0,0,1,9.641,14A.732.732,0,0,1,29.268,31.1ZM1.483,29.634H28.517A13.63,13.63,0,0,0,20.6,18.055c-1,2.566-4.82,4.348-5.3,4.564a.732.732,0,0,1-.6,0c-.479-.215-4.3-2-5.3-4.564A13.63,13.63,0,0,0,1.483,29.634Z"/><path class="a" d="M8.232,31.1a.732.732,0,0,1-.732-.732V24.878a.732.732,0,1,1,1.463,0v5.488A.732.732,0,0,1,8.232,31.1Z"/><path class="a" d="M21.4,31.1a.732.732,0,0,1-.732-.732V24.878a.732.732,0,1,1,1.463,0v5.488A.732.732,0,0,1,21.4,31.1Z"/></svg>
